X: 1
T: Montreal Rendezvous
T: 8x32R 3C (Peter White "Montreal Moments")
P: Monozygotic Phenomenon
R: reel
C: by Laura Risk (c) 2008
C: arr. T. Traub 10-28-2011
M: 4/4
L: 1/8
K: C
|: B2|"C" c2 c2 c2 GF|"C"EFDE C3 A|"Bb"_B2 B2 B2 F_E|"Bb"D_ECD _B,2| "C"C=B,CD EFGE|"F"FGA=B "Am"c3 e|"Dm"fedc "G"=Bggf|"C"e2 c2 c2 :|
|: d2 |"G"g2 g2 g2 dc|"G"BcAB G3 e|"F"f2 f2 f2 c_B|"F"A_BGA FDED|"Am"C=B,CD "G"EFGE|"F"FGA=B c3 e|"Dm7"fedc "G7"=Bggf|"C"e2 c2 c2 :|
